X:1
T:Lads of Laois, the
L:1/8
M:2/2
I:linebreak $
K:D
V:1 treble 
V:1
 eBAB EFFE | dA A2 DEED | GEED EFGA | B2 eB dBAF | eBAB EFFE | dA A2 DEED |$ E2 Be dBAF | %7
 DEFA BE E2 :| eB B2 effe | defa gfed | (3Bcd ef g2 ge |$ fagf{f} gfed | efed BAFA | BEED Bc d2 | %14
 gbge fafd | efed BAF{A}B |$ eBAB egfe | defa gfed | (3Bcd ef g2 ge | fagf{f} gfed | eEeB GBFB |$ %21
 EB (3B/c/B/A Bc d2 | gbge f2 fd | efed BAFB | E8 || %25
